X: 8883
T: Cup Of Tea, The
R: reel
M: 4/4
K: Edorian
BAGF EDEF|GE~E2 BdAA|BAGF EDEG|(3FFF AF BFAA|
BAGF EDEF|GE~E2 BdAA|BAGF EDFA|d2AG FDDA|
d2(3efg fdec|dAFA BAFA|(3ddd eg fbec|dBAG FDDA|
d2(3efg fded|(3Bcd ef g2fg|afge fdec|dBAG FDDD|
FABA FAdD|Ddcd BAFA|FABA FABc|d2AG FDDD|
FABA FAdD|Ddcd BAFA|dfaf gfec|dBAG FDDA|

